X:1
T:Micho Russell's
R:slide
M:12/8
L:1/8
K:D
|:A2A A2A ABA F2E|DFA ~B2A ~B2A F2d|
|dcd a2g f2d B2A|1 BcA BAB d3 d2B:|2 BcA BAB d3 d2A|]
|:dcd a2g f2d B2A|BcA BcA ~B2A F2d|
|dcd a2g f2d B2A|1 BcA BAB d3 d2A:|2 BcA BAB d3 d2B|]